X: 498
T: Bülbülüm Gel de Dile
C: Sadettin Kaynak
O: Turkey
F: http://compmusic.upf.edu/node/140
N: muhayyer--sarki--duyek--cile_bulbulum--sadettin_kaynak
N: makam= muhayyer
N: form= sarki
N: usul= duyek = 8/4
M: 8/4
L: 1/16
K: C _2/4B ^3/4f  
Q: 1/4=216
%%MIDI tuningsystem comma53
.g2 .a2 .g2 .a2 z2 ab c'3b  | a3g f3e d4 c'4  | \
w:  ARANAĞME  |   | 
b2 c'2 b2 .d'2 z2 a2 b2 g2  | 
w:   | 
.a2 ab ag fe de fg ef ga  | g2 .a2 g2 .a2 z2 _b2 {c'}a2 {b}g2  | 
w:   |   | 
=f3e d3c _3/4B3A G4  | z2 c2 B2 d2 z2 A2 B2 G2  | \
w:   |   | 
A6 Bc de fg a4  | 
w:   | 
g2 .a2 g2 .a2 z2 _b2 {c'}a2 {b}g2  | \
w:   | 
=f3e d3c _3/4B3A G4  | z2 c2 B2 d2 z2 A2 B2 G2  | 
w:   |   | 
A6 Bc de fg a4  | z2 a4 b2 c'4 (3b2b2a2  | \
w:   |  Bül bü lüm  gel   | 
a4 z4 g2 g2 a4  | z2 a4 b2 c'2 c'2 (3b2b2a2  | 
w:  de  di le    |  Söy le  be *  nim  | 
a6 g2 g2 g2 a4  | {b}ag a2 g2 a2 a4 aa g2  | \
w:  le  *  bi le    |  *  SAZ *  *  Se si ni  du  | 
g2 =f2 {g}f2 e2 e2 d2 {e}(3d2e2d2  | 
w:  yur  *  *  *  *  e *  *  le    | 
c4 e2 =f2 f2 e2 e2 d2  | d2 c2 {d}c2 B2 c2 c2 d4  | \
w:  *  Çi le  bül *  bü  |  lüm  *  *  *  *  çi le    | 
{e}dc d2 c2 d2 d4 {e}d2 c2  | 
w:  *  SAZ *  *  Çi le  bül *  bü  | 
c2 B2 {c}B2 A2 A2 G2 c4  | c4 B2 c2 {d}c2 B2 B2 A2  | \
w:  lüm  *  *  *  *  çi *  le    |  SAZ Çi le  *  bül *  bü  | 
A3B c2 d2 e2 f2 g2 a2  | 
w:  lüm  SAZ  | 
g2 {g}a14  | a16  | (3a2g2a2 (3g2=f2g2 (3f2e2f2 (3e2d2e2  | \
w:  Çi *  le   |   |   | 
d8 d3/2=f/ ed (3c2B2A2  | 
w:   | 
G4 B2 c2 c2 B2 B2 A2  | A4 z4 d4 d4  | \
w:  *  çi le  bül *  bü  |  lüm  Al lah   | 
c2 d2 z4 z4 B2 c2  | cB A2 z4 G2 A6  | 
w:  çi le  bül  |  bü *  lüm  çi le    | 
.g2 .a2 .g2 .a2 z2 ab c'3b  | a3g f3e d4 c'4  | \
w:  ARANAĞME  |   | 
b2 c'2 b2 .d'2 z2 a2 b2 g2  | 
w:   | 
.a2 ab ag fe de fg ef ga  | g2 .a2 g2 .a2 z2 _b2 {c'}a2 {b}g2  | 
w:   |   | 
=f3e d3c _3/4B3A G4  | z2 c2 B2 d2 z2 A2 B2 G2  | \
w:   |   | 
A6 Bc de fg a4  | 
w:   | 
g2 .a2 g2 .a2 z2 _b2 {c'}a2 {b}g2  | \
w:   | 
=f3e d3c _3/4B3A G4  | z2 c2 B2 d2 z2 A2 B2 G2  | 
w:   |   | 
A6 Bc de fg a4  | z2 a4 b2 c'4 (3b2b2a2  | \
w:   |  Bül bü lüm  gel   | 
a4 z4 g2 g2 a4  | z2 a4 b2 c'2 c'2 (3b2b2a2  | 
w:  de  di le    |  Söy le  be *  nim  | 
a6 g2 g2 g2 a4  | {b}ag a2 g2 a2 a4 aa g2  | \
w:  le  *  bi le    |  *  SAZ *  *  Se si ni  du  | 
g2 =f2 {g}f2 e2 e2 d2 {e}(3d2e2d2  | 
w:  yur  *  *  *  *  e *  *  le    | 
c4 e2 =f2 f2 e2 e2 d2  | d2 c2 {d}c2 B2 c2 c2 d4  | \
w:  *  Çi le  bül *  bü  |  lüm  *  *  *  *  çi le    | 
{e}dc d2 c2 d2 d4 {e}d2 c2  | 
w:  *  SAZ *  *  Çi le  bül *  bü  | 
c2 B2 {c}B2 A2 A2 G2 c4  | c4 B2 c2 {d}c2 B2 B2 A2  | \
w:  lüm  *  *  *  *  çi *  le    |  SAZ Çi le  *  bül *  bü  | 
A3B c2 d2 e2 f2 g2 a2  | 
w:  lüm  SAZ  | 
g2 {g}a14  | a16  | (3a2g2a2 (3g2=f2g2 (3f2e2f2 (3e2d2e2  | \
w:  Çi *  le   |   |   | 
d8 d3/2=f/ ed (3c2B2A2  | 
w:   | 
G4 B2 c2 c2 B2 B2 A2  | A4 z4 d4 d4  | \
w:  *  çi le  bül *  bü  |  lüm  Al lah   | 
c2 d2 z4 z4 B2 c2  | cB A2 z4 G2 A6  | 
w:  çi le  bül  |  bü *  lüm  çi le    | 
|


